X: 3
T: The Trip To Sligo
R: jig
M: 6/8
L: 1/8
K: Gmaj
D|E2B BGE|D2d AFD|E2B BGE|GF Ee2f|!gfe dcB|AFd AFD|E2B BGB|AGFE2:|!|:B|eBe gbe|fdf fgf|eBe gbe|faf gfe|eBe gbe|d^cd AFD|EFG ABc|BG FE2:|]


Tune 397	Setting 27804

